public/steps/monitor.svg

<svg width="32" height="32" viewBox="0 0 32 32" fill="none" xmlns="http://www.w3.org/2000/svg">
<path d="M29.5 1H2.5C2.10232 1.00046 1.72106 1.15865 1.43985 1.43985C1.15865 1.72106 1.00046 2.10232 1 2.5V23.5C1.00046 23.8977 1.15865 24.2789 1.43985 24.5601C1.72106 24.8414 2.10232 24.9995 2.5 25H15V29H10V31H22V29H17V25H29.5C29.8977 24.9995 30.2789 24.8414 30.5601 24.5601C30.8414 24.2789 30.9995 23.8977 31 23.5V2.5C30.9995 2.10232 30.8414 1.72106 30.5601 1.43985C30.2789 1.15865 29.8977 1.00046 29.5 1ZM29 23H3V17H29V23ZM29 15H3V3H29V15Z" fill="#94A3B8"/>
<path d="M25 19H27V21H25V19Z" fill="#94A3B8"/>
</svg>

<svg xmlns="http://www.w3.org/2000/svg" width="32" height="32" fill="none"><path fill="#94A3B8" d="M29.5 1h-27A1.5 1.5 0 0 0 1 2.5v21A1.5 1.5 0 0 0 2.5 25H15v4h-5v2h12v-2h-5v-4h12.5a1.5 1.5 0 0 0 1.5-1.5v-21A1.5 1.5 0 0 0 29.5 1ZM29 23H3v-6h26v6Zm0-8H3V3h26v12Z"/><path fill="#94A3B8" d="M25 19h2v2h-2v-2Z"/></svg>
